X: 10469
T: Donie Nolan's
R: barndance
M: 4/4
K: Gmajor
B2 BA BAGA|B2 BA BAGA|Bd d2 dBGA|BAAG A2 BA|
GABd g2 gd|egdB A2 GA|Bd d2 dBAB|G2 FA G4:|
ageg dega|bagb agef|g2 ga gedB|BAAG A2 BA|
GABd g2 gd|egdB ABGA|Bdde dBAB|G2 FA G4:|

